src/assets/icons/ico_newbuild.svg

<?xml version="1.0" encoding="utf-8"?>
<!-- Generator: Adobe Illustrator 26.0.1, SVG Export Plug-In . SVG Version: 6.00 Build 0)  -->
<svg version="1.1" id="Layer_1" xmlns="http://www.w3.org/2000/svg" xmlns:xlink="http://www.w3.org/1999/xlink" x="0px" y="0px"
	 viewBox="0 0 64 64" style="enable-background:new 0 0 64 64;" xml:space="preserve">
<style type="text/css">
	.st0{fill:#43BBC4;}
</style>
<path class="st0" d="M10.6172,26.8501c0.0654,0.123,0.1787,0.2129,0.3135,0.2485c0.1328,0.0356,0.2764,0.0132,0.3955-0.061
	l0.6914-0.438v27.8653c0,0.2764,0.2236,0.5,0.5,0.5h38.9648c0.2764,0,0.5-0.2236,0.5-0.5V26.5995l0.6914,0.438
	c0.0811,0.0513,0.1738,0.0776,0.2676,0.0776c0.043,0,0.0859-0.0054,0.1279-0.0166c0.1348-0.0356,0.248-0.1255,0.3135-0.2485
	l1.6387-3.0796c0.124-0.2324,0.0459-0.521-0.1777-0.6597L32.2637,9.1104c-0.1621-0.1006-0.3652-0.1006-0.5273,0L9.1562,23.1108
	c-0.2236,0.1387-0.3018,0.4272-0.1777,0.6597L10.6172,26.8501z M19.7285,47.583v2.3789h-3.626V47.583H19.7285z M21.4961,44.3604
	v2.2227h-3.7305v-2.2227H21.4961z M26.0703,44.3604v2.2227h-3.5742v-2.2227H26.0703z M33.6084,47.583v2.3789h-3.627V47.583H33.6084z
	 M21.4961,50.9619v3.0029h-3.7305v-3.0029H21.4961z M24.3555,47.583v2.3789h-3.627V47.583H24.3555z M22.4961,50.9619h3.7305v3.0029
	h-3.7305V50.9619z M27.2266,50.9619h3.7305v3.0029h-3.7305V50.9619z M31.957,50.9619h3.7305v3.0029H31.957V50.9619z
	 M28.9814,49.9619h-3.626V47.583h3.626V49.9619z M15.1025,49.9619h-2.085V47.583h2.085V49.9619z M13.0176,35.4199h2.501v3.9121
	h-2.501V35.4199z M15.5186,34.4199h-2.501v-3.9126h2.501V34.4199z M13.0176,50.9619h3.748v3.0029h-3.748V50.9619z M48.7988,53.9648
	v-5.29h2.1836v5.29H48.7988z M50.9824,47.6748h-2.1836v-8.7529c0-0.2764-0.2236-0.5-0.5-0.5h-9.3564c-0.2764,0-0.5,0.2236-0.5,0.5
	v5.7188c0,0.2764,0.2236,0.5,0.5,0.5s0.5-0.2236,0.5-0.5v-5.2188h8.3564v8.2529h-1.9424c-0.2764,0-0.5,0.2236-0.5,0.5
	s0.2236,0.5,0.5,0.5h1.9424v5.29H36.6875v-3.0029h2.6191c0.2764,0,0.5-0.2236,0.5-0.5s-0.2236-0.5-0.5-0.5h-4.6982V47.583h4.6982
	c0.2764,0,0.5-0.2236,0.5-0.5s-0.2236-0.5-0.5-0.5H27.0703v-2.7227c0-0.2764-0.2236-0.5-0.5-0.5H15.6025
	c-0.2764,0-0.5,0.2236-0.5,0.5s0.2236,0.5,0.5,0.5h1.1631v2.2227h-3.748v-6.251h3.001c0.2764,0,0.5-0.2236,0.5-0.5v-9.8247
	c0-0.2764-0.2236-0.5-0.5-0.5h-3.001v-3.5414L14.5422,25h13.533h7.8496h13.533l1.5246,0.9659V47.6748z M28.5752,24v-1.8213H31.5V24
	H28.5752z M35.4248,19.3574v1.8213H32.5v-1.8213H35.4248z M31.5,21.1787h-2.9248v-1.8213H31.5V21.1787z M32.5,22.1787h2.9248V24
	H32.5V22.1787z M36.4248,18.8574c0-0.2764-0.2236-0.5-0.5-0.5h-7.8496c-0.2764,0-0.5,0.2236-0.5,0.5V24H16.1205L32,13.939
	L47.8795,24H36.4248V18.8574z M32,10.1235l21.9189,13.5903l-1.166,2.1904L32.2676,12.9248
	c-0.082-0.0518-0.1748-0.0776-0.2676-0.0776s-0.1855,0.0259-0.2676,0.0776L11.2471,25.9043l-1.166-2.1904L32,10.1235z"/>
</svg>

<?xml version="1.0" encoding="UTF-8" standalone="no"?>
<!DOCTYPE svg PUBLIC "-//W3C//DTD SVG 1.1//EN" "http://www.w3.org/Graphics/SVG/1.1/DTD/svg11.dtd">
<svg width="100%" height="100%" viewBox="0 0 65 65" version="1.1" xmlns="http://www.w3.org/2000/svg" xmlns:xlink="http://www.w3.org/1999/xlink" xml:space="preserve" xmlns:serif="http://www.serif.com/" style="fill-rule:evenodd;clip-rule:evenodd;stroke-linejoin:round;stroke-miterlimit:2;">
    <g transform="matrix(1,0,0,1,-219,-79)">
        <g transform="matrix(0.0625,0,0,0.0833333,219.535,79.8764)">
            <rect id="ico_newbuild" x="0" y="0" width="1024" height="768" style="fill:none;"/>
            <g id="ico_newbuild1" serif:id="ico_newbuild">
                <g id="ico_newbuild.svg" transform="matrix(16,0,0,12,512,384)">
                    <g transform="matrix(1,0,0,1,-32,-32)">
                        <path d="M10.617,26.85C10.683,26.973 10.796,27.063 10.931,27.099C11.064,27.134 11.207,27.112 11.326,27.038L12.018,26.6L12.018,54.465C12.018,54.741 12.241,54.965 12.518,54.965L51.482,54.965C51.759,54.965 51.982,54.741 51.982,54.465L51.982,26.6L52.674,27.037C52.755,27.089 52.848,27.115 52.941,27.115C52.984,27.115 53.027,27.11 53.069,27.098C53.204,27.063 53.317,26.973 53.383,26.85L55.021,23.77C55.146,23.538 55.067,23.249 54.844,23.111L32.264,9.11C32.102,9.01 31.898,9.01 31.736,9.11L9.156,23.111C8.933,23.25 8.854,23.538 8.979,23.771L10.617,26.85ZM19.729,47.583L19.729,49.962L16.102,49.962L16.102,47.583L19.729,47.583ZM21.496,44.36L21.496,46.583L17.766,46.583L17.766,44.36L21.496,44.36ZM26.07,44.36L26.07,46.583L22.496,46.583L22.496,44.36L26.07,44.36ZM33.608,47.583L33.608,49.962L29.981,49.962L29.981,47.583L33.608,47.583ZM21.496,50.962L21.496,53.965L17.766,53.965L17.766,50.962L21.496,50.962ZM24.356,47.583L24.356,49.962L20.729,49.962L20.729,47.583L24.356,47.583ZM22.496,50.962L26.227,50.962L26.227,53.965L22.496,53.965L22.496,50.962ZM27.227,50.962L30.957,50.962L30.957,53.965L27.227,53.965L27.227,50.962ZM31.957,50.962L35.688,50.962L35.688,53.965L31.957,53.965L31.957,50.962ZM28.981,49.962L25.355,49.962L25.355,47.583L28.981,47.583L28.981,49.962ZM15.102,49.962L13.017,49.962L13.017,47.583L15.102,47.583L15.102,49.962ZM13.018,35.42L15.519,35.42L15.519,39.332L13.018,39.332L13.018,35.42ZM15.519,34.42L13.018,34.42L13.018,30.507L15.519,30.507L15.519,34.42ZM13.018,50.962L16.766,50.962L16.766,53.965L13.018,53.965L13.018,50.962ZM48.799,53.965L48.799,48.675L50.982,48.675L50.982,53.965L48.799,53.965ZM50.982,47.675L48.799,47.675L48.799,38.922C48.799,38.645 48.575,38.422 48.299,38.422L38.942,38.422C38.666,38.422 38.442,38.645 38.442,38.922L38.442,44.641C38.442,44.917 38.666,45.141 38.942,45.141C39.219,45.141 39.442,44.917 39.442,44.641L39.442,39.422L47.799,39.422L47.799,47.675L45.856,47.675C45.58,47.675 45.356,47.898 45.356,48.175C45.356,48.451 45.58,48.675 45.856,48.675L47.799,48.675L47.799,53.965L36.688,53.965L36.688,50.962L39.307,50.962C39.583,50.962 39.807,50.738 39.807,50.462C39.807,50.185 39.583,49.962 39.307,49.962L34.608,49.962L34.608,47.583L39.307,47.583C39.583,47.583 39.807,47.359 39.807,47.083C39.807,46.807 39.583,46.583 39.307,46.583L27.07,46.583L27.07,43.86C27.07,43.584 26.847,43.36 26.57,43.36L15.602,43.36C15.326,43.36 15.102,43.584 15.102,43.86C15.102,44.137 15.326,44.36 15.602,44.36L16.766,44.36L16.766,46.583L13.018,46.583L13.018,40.332L16.019,40.332C16.295,40.332 16.519,40.108 16.519,39.832L16.519,30.007C16.519,29.731 16.295,29.507 16.019,29.507L13.018,29.507L13.018,25.966L14.542,25L49.458,25L50.982,25.966L50.982,47.675ZM28.575,24L28.575,22.179L31.5,22.179L31.5,24L28.575,24ZM35.425,19.357L35.425,21.179L32.5,21.179L32.5,19.357L35.425,19.357ZM31.5,21.179L28.575,21.179L28.575,19.357L31.5,19.357L31.5,21.179ZM32.5,22.179L35.425,22.179L35.425,24L32.5,24L32.5,22.179ZM36.425,18.857C36.425,18.581 36.201,18.357 35.925,18.357L28.075,18.357C27.799,18.357 27.575,18.581 27.575,18.857L27.575,24L16.121,24L32,13.939L47.88,24L36.425,24L36.425,18.857ZM32,10.124L53.919,23.714L52.753,25.904L32.268,12.925C32.186,12.873 32.093,12.847 32,12.847C31.907,12.847 31.815,12.873 31.732,12.925L11.247,25.904L10.081,23.714L32,10.124Z" style="fill:rgb(26,91,87);fill-rule:nonzero;"/>
                    </g>
                </g>
            </g>
        </g>
    </g>
</svg>
